public/assets/standards/soft/compliance.svg

<svg width="48" height="48" viewBox="0 0 48 48" fill="none" xmlns="http://www.w3.org/2000/svg">
<g clip-path="url(#clip0_1_890)">
<path d="M43.0401 46.92C42.9401 46.82 42.8101 46.76 42.66 46.74C40.43 46.51 38.68 44.58 38.68 42.34L38.71 13.26C38.71 9.33 35.51 6.13 31.58 6.13H0.60005C0.35005 6.13 0.14005 6.29 0.0500496 6.52C-0.0499504 6.75 0.0200496 7.03 0.20005 7.21C0.30005 7.31 0.43005 7.37 0.57005 7.39C2.62005 7.61 4.27005 9.26 4.49005 11.24L4.53005 40.86C4.53005 44.79 7.73005 47.99 11.66 47.99H42.6301C42.8801 47.99 43.09 47.83 43.19 47.6C43.29 47.37 43.22 47.09 43.05 46.92H43.0401Z" fill="#006D68"/>
<path d="M47.8 40.8C47.69 40.69 47.55 40.62 47.4 40.61C45.19 40.39 43.46 38.47 43.46 36.25L43.49 7.17C43.49 3.22 40.27 0 36.32 0H5.34001C5.08001 0 4.85001 0.17 4.75001 0.42C4.65001 0.66 4.72001 0.96 4.91001 1.15C5.02001 1.26 5.15001 1.32 5.30001 1.34C7.33001 1.56 8.97001 3.19 9.18001 5.16L9.22001 34.78C9.22001 38.73 12.44 41.95 16.39 41.95H47.36C47.62 41.95 47.85 41.78 47.95 41.53C48.05 41.29 47.98 40.99 47.8 40.8Z" fill="#A5C352"/>
<path d="M36.94 19.55H15.76V22.39H36.94V19.55Z" fill="white"/>
<path d="M36.94 9.17H15.76V12.01H36.94V9.17Z" fill="white"/>
<path d="M36.94 29.93H15.76V32.77H36.94V29.93Z" fill="white"/>
</g>
<defs>
<clipPath id="clip0_1_890">
<rect width="48" height="48" fill="white"/>
</clipPath>
</defs>
</svg>

<svg xmlns="http://www.w3.org/2000/svg" width="48" height="48" fill="none" viewBox="0 0 48 48"><g clip-path="url(#a)"><path fill="#006d68" d="M43.04 46.92c-.1-.1-.23-.16-.38-.18-2.23-.23-3.98-2.16-3.98-4.4l.03-29.08c0-3.93-3.2-7.13-7.13-7.13H.6c-.25 0-.46.16-.55.39-.1.23-.03.51.15.69.1.1.23.16.37.18 2.05.22 3.7 1.87 3.92 3.85l.04 29.62c0 3.93 3.2 7.13 7.13 7.13h30.97c.25 0 .46-.16.56-.39s.03-.51-.14-.68z"/><path fill="#a5c352" d="M47.8 40.8a.63.63 0 0 0-.4-.19c-2.21-.22-3.94-2.14-3.94-4.36l.03-29.08c0-3.95-3.22-7.17-7.17-7.17H5.34c-.26 0-.49.17-.59.42-.1.24-.03.54.16.73.11.11.24.17.39.19 2.03.22 3.67 1.85 3.88 3.82l.04 29.62c0 3.95 3.22 7.17 7.17 7.17h30.97c.26 0 .49-.17.59-.42.1-.24.03-.54-.15-.73"/><path fill="#fff" d="M36.94 19.55H15.76v2.84h21.18zm0-10.38H15.76v2.84h21.18zm0 20.76H15.76v2.84h21.18z"/></g><defs><clipPath id="a"><path fill="#fff" d="M0 0h48v48H0z"/></clipPath></defs></svg>
